storage/app/icons/phosphoricons/regular/shipping-container.svg

<svg xmlns="http://www.w3.org/2000/svg" fill="currentColor" viewBox="0 0 256 256"><path d="M236.4 70.65 130.2 40.31a8 8 0 0 0-3.33-.23L21.74 55.1A16.08 16.08 0 0 0 8 70.94v114.12a16.08 16.08 0 0 0 13.74 15.84l105.13 15a8.5 8.5 0 0 0 1.13.1 8 8 0 0 0 2.2-.31l106.2-30.34A16.07 16.07 0 0 0 248 170V86a16.07 16.07 0 0 0-11.6-15.35M96 120H80V62.94l40-5.72v141.56l-40-5.72V136h16a8 8 0 0 0 0-16M24 70.94l40-5.72V120H48a8 8 0 0 0 0 16h16v54.78l-40-5.72Zm112 126.45V58.61L232 86v84Z"/></svg>

<svg xmlns="http://www.w3.org/2000/svg" viewBox="0 0 256 256" fill="currentColor"><path d="M236.4,70.65,130.2,40.31a8,8,0,0,0-3.33-.23L21.74,55.1A16.08,16.08,0,0,0,8,70.94V185.06A16.08,16.08,0,0,0,21.74,200.9l105.13,15A8.47,8.47,0,0,0,128,216a7.85,7.85,0,0,0,2.2-.31l106.2-30.34A16.07,16.07,0,0,0,248,170V86A16.07,16.07,0,0,0,236.4,70.65ZM96,120H80V62.94l40-5.72V198.78l-40-5.72V136H96a8,8,0,0,0,0-16ZM24,70.94l40-5.72V120H48a8,8,0,0,0,0,16H64v54.78l-40-5.72ZM136,197.39V58.61L232,86V170Z"/></svg>
